svg/uf00d8-match_game.svg

<svg height="960" style="" width="1760" xmlns="http://www.w3.org/2000/svg"><path d="m362.99544 60-242.47784 419.99997 242.47784 420.00003h484.98241l32.03557-55.46556 32.00866 55.46556h484.98242l242.4779-420.00003-242.4779-419.99997h-484.98242l-32.00866 55.46563-32.03557-55.46563zm64.04418 110.93127h356.86737l32.03543 55.49237-146.39823 253.57633 146.39823 253.57633-32.03543 55.46569h-356.86737l-178.43366-309.04202zm549.02669 0h356.86729l178.4337 309.0687-178.4337 309.04202h-356.86729l-32.0088-55.43879 146.39819-253.60323-146.42495-253.60309zm-96.07966 166.42376 82.354 142.64494-82.354 142.64508-82.354-142.64508z" style="stroke-width:13.7257"/></svg>

<svg xmlns="http://www.w3.org/2000/svg" width="1760" height="960">
    <path d="M362.995 60 120.518 480l242.477 420h484.983l32.035-55.466L912.023 900h484.981l242.478-420-242.477-420H912.022l-32.009 55.466L847.978 60zm64.045 110.931h356.867l32.035 55.493L669.544 480l146.398 253.576-32.035 55.466H427.04L248.606 480zm549.026 0h356.868L1511.367 480l-178.433 309.042H976.066l-32.008-55.439L1090.456 480 944.03 226.397zm-96.08 166.424L962.342 480l-82.354 142.645L797.633 480z" style="stroke-width:13.7257"/>
</svg>
